!!!OTL: 72. Gas-nign
!!!Genre:	Gas-nign
!!!Mode:	Minor
!!!Listening/dance:	listening
!!!One_Mode:	no
**kern
*thru
*I"P1
*clefG2
*>A
*k[b-e-]
*B-:
!LO:TX:a:i:t=Bb-major
=9||
4f
4b-
4cc
=10
2dd
8ccL
8b-J
=11
8ffL
8ee-
8ff
8ee-
8ff
8ee-J
=12
2dd
8ccL
8b-J
=13
4f
4b-
4cc
=14
2dd
8ccL
8b-J
=15
8aL
8b-
8cc
8dd
8a
8ccJ
=16
4b-
4r
4r
*>C
!!!End-Modulation
*-
